svgs/thin/rss.svg

<svg xmlns="http://www.w3.org/2000/svg" viewBox="0 0 448 512"><!-- Font Awesome Pro 6.0.0-alpha2 by @fontawesome - https://fontawesome.com License - https://fontawesome.com/license (Commercial License) --><path d="M8 32C3.594 32 0 35.594 0 40S3.594 48 8 48C241.781 48 432 238.219 432 472C432 476.406 435.594 480 440 480S448 476.406 448 472C448 229.375 250.625 32 8 32ZM8 176C3.594 176 0 179.594 0 184S3.594 192 8 192C162.406 192 288 317.594 288 472C288 476.406 291.594 480 296 480S304 476.406 304 472C304 308.781 171.219 176 8 176ZM64 352C28.654 352 0 380.654 0 416S28.654 480 64 480C99.348 480 128 451.346 128 416S99.348 352 64 352ZM64 464C37.533 464 16 442.467 16 416S37.533 368 64 368S112 389.533 112 416S90.467 464 64 464Z"/></svg>

<svg xmlns="http://www.w3.org/2000/svg" viewBox="0 0 448 512"><!--! Font Awesome Pro 6.4.0 by @fontawesome - https://fontawesome.com License - https://fontawesome.com/license (Commercial License) Copyright 2023 Fonticons, Inc. --><path d="M8 32c-4.4 0-8 3.6-8 8s3.6 8 8 8c234.2 0 424 189.8 424 424c0 4.4 3.6 8 8 8s8-3.6 8-8C448 229 251 32 8 32zM8 176c-4.4 0-8 3.6-8 8s3.6 8 8 8c154.6 0 280 125.4 280 280c0 4.4 3.6 8 8 8s8-3.6 8-8C304 308.5 171.5 176 8 176zm8 240a48 48 0 1 1 96 0 48 48 0 1 1 -96 0zm112 0A64 64 0 1 0 0 416a64 64 0 1 0 128 0z"/></svg>
